X:7900
T:The daughter of Megan
C:anon.
O:Wales
R:Air
Z:Transcribed by Frank Nordberg - http://www.musicaviva.com
F:http://abc.musicaviva.com/tunes/wales/daughter-of-megan.abc
M:3/4
L:1/8
K:G
d>c|B2G2G2|e4d2|c2B2A>G|F2D2d>c|
B2G2G2|e4d2|c2B2A2|G4:|d2|
g2g2g2|f2f3f|e2efge|f2d2d2|
g2gaga|f2fgfg|e2efge|d4d>c|
B2G2G2|e4d2|c2B2A>G|F2D2d>c|
B2G2G2|e4d2|c2B2A2|G4|]
W:
W:
W:  From Musica Viva - http://www.musicaviva.com
W:  the Internet center for free sheet music downloads.
